X: 418
%
U:~=!turn!
T: Miss Nisbet of Dirleton
C:Nath. Gow
O:Scotland
B:Keith Norman MacDonald : "The Skye collection of the best reels & strathspeys extant" : 1887
Z:Ralph Palmer
R:Reel
M:C|
L:1/8
K:A minor
e | AAec BGGB | AAeA {/B}cde^f | {/^f}gdec BGGB | AAeB cAA :| ^g | {/^g}aee=g BGG^g | {/^g}aee^f =gbaf |
{/^f}gdec BGGB | AAeB cAA^g | {/^g}aee=g BGG^g | aee^f =gbaf | {/f}gdec BdGB | AaeB cAA |]


